images/sass.svg

<svg width="80" height="80" viewBox="0 0 80 80" fill="none" xmlns="http://www.w3.org/2000/svg">
<path d="M40 71.25C57.2589 71.25 71.25 57.2589 71.25 40C71.25 22.7411 57.2589 8.75 40 8.75C22.7411 8.75 8.75 22.7411 8.75 40C8.75 57.2589 22.7411 71.25 40 71.25Z" fill="#CC6699"/>
<path d="M56.8125 26.1251C56.4375 24.6251 55.375 23.3751 53.75 22.5001C50.5625 20.8126 45.4375 20.7501 40.75 22.4376C37.9375 23.4376 32.625 25.6876 28.625 29.3751C24.625 33.1251 24 36.4376 24.3125 37.7501C25 41.3751 28.8125 43.9376 31.8125 46.0626C32.625 46.6251 33.375 47.1251 33.9375 47.6251C32.25 48.5001 27.6875 51.0626 26.4375 53.7501C25.5 55.8751 25.9375 57.4376 26.3125 58.1251C26.6875 58.9376 27.3125 59.5626 27.9375 59.7501C28.5625 59.9376 29.25 60.0001 29.9375 60.0001C32.625 60.0001 35.25 58.5626 36.875 56.1251C38.5 53.6876 38.625 50.4376 37.875 48.4376C38.9375 48.1876 40.0625 48.1876 41.3125 48.3126C43.75 48.6251 44.9375 49.5626 45.5 50.3126C46.125 51.1251 46.25 51.9376 46.1875 52.4376C46.0625 53.3751 45.3125 53.9376 44.9375 54.1876C44.625 54.3751 44.375 54.5626 44.4375 54.9376C44.5625 55.4376 45.0625 55.3751 45.25 55.3751C45.8125 55.2501 47.8125 54.2501 47.9375 52.0001C48 50.6251 47.4375 49.2501 46.375 48.1251C45 46.6876 42.9375 45.9376 40.5625 46.0001C38.8125 46.0001 37.625 46.1876 36.6875 46.5001L36.625 46.4376C35.75 45.5001 34.5625 44.6251 33.5 43.7501C31 41.8751 28.6875 40.0626 28.8125 37.3751C29 34.0001 32.3125 30.6876 38.75 27.5001C44.4375 24.6876 49.0625 24.5626 51.5 25.4376C52.5 25.8126 53.1875 26.3126 53.4375 26.8751C53.9375 27.9376 53.75 29.3126 52.875 30.8126C51.4375 33.3126 47.8125 36.4376 42.25 37.0626C38.875 37.4376 37.4375 35.9376 37.375 35.8751C37 35.4376 36.75 35.1876 36.3125 35.4376C35.8125 35.6876 36.0625 36.3751 36.1875 36.6251C36.4375 37.3126 37.5 38.5001 39.3125 39.1251C40.75 39.6251 44.4375 39.9376 49 38.1876C54.25 36.0626 57.875 30.4376 56.8125 26.1251ZM35.25 52.7501C35.1875 52.8751 35.1875 53.0001 35.125 53.1251C35.0625 53.2501 35 53.3751 35 53.5001C34.75 54.0626 34.375 54.6251 33.875 55.1251C32.4375 56.6876 30.5 57.1251 29.875 56.7501C29.6875 56.6251 29.625 56.4376 29.5625 56.1876C29.4375 55.4376 29.875 53.9376 31.1875 52.6251C32.75 51.0001 34.9375 49.8126 35.4375 49.5626C35.625 50.6876 35.5625 51.7501 35.25 52.7501Z" fill="white"/>
</svg>

<svg width="80" height="80" viewBox="0 0 80 80" fill="none" xmlns="http://www.w3.org/2000/svg"><path d="M40 71.25c17.259 0 31.25-13.991 31.25-31.25S57.259 8.75 40 8.75 8.75 22.741 8.75 40 22.741 71.25 40 71.25z" fill="#C69"/><path d="M56.813 26.125c-.376-1.5-1.438-2.75-3.063-3.625-3.188-1.687-8.313-1.75-13-.062-2.813 1-8.125 3.25-12.125 6.937-4 3.75-4.625 7.063-4.313 8.375.688 3.625 4.5 6.188 7.5 8.313.813.562 1.563 1.062 2.125 1.562-1.687.875-6.25 3.438-7.5 6.125-.937 2.125-.5 3.688-.125 4.375.375.813 1 1.438 1.625 1.625.625.188 1.313.25 2 .25 2.688 0 5.313-1.437 6.938-3.875 1.625-2.437 1.75-5.687 1-7.687 1.063-.25 2.188-.25 3.438-.125 2.437.312 3.624 1.25 4.187 2 .625.812.75 1.625.688 2.125-.126.937-.876 1.5-1.25 1.75-.313.187-.563.375-.5.75.124.5.624.437.812.437.563-.125 2.563-1.125 2.688-3.375.062-1.375-.5-2.75-1.563-3.875C45 46.688 42.937 45.938 40.562 46c-1.75 0-2.937.188-3.874.5l-.063-.062c-.875-.938-2.063-1.813-3.125-2.688-2.5-1.875-4.813-3.687-4.688-6.375C29 34 32.313 30.688 38.75 27.5c5.688-2.812 10.313-2.937 12.75-2.062 1 .375 1.688.875 1.938 1.437.5 1.063.312 2.438-.563 3.938-1.438 2.5-5.063 5.625-10.625 6.25-3.375.375-4.813-1.125-4.875-1.188-.375-.437-.625-.687-1.063-.437-.5.25-.25.937-.124 1.187.25.688 1.312 1.875 3.124 2.5 1.438.5 5.126.813 9.688-.937 5.25-2.125 8.875-7.75 7.813-12.063zM35.25 52.75c-.063.125-.063.25-.125.375-.063.125-.125.25-.125.375a5.439 5.439 0 01-1.125 1.625c-1.438 1.563-3.375 2-4 1.625-.188-.125-.25-.312-.313-.562-.125-.75.313-2.25 1.625-3.563 1.563-1.625 3.75-2.812 4.25-3.062.188 1.125.126 2.187-.187 3.187z" fill="#fff"/></svg>
